Newaita/actions/24/color-picker.svg

<svg height="24" viewBox="0 0 24 24" width="24" xmlns="http://www.w3.org/2000/svg"><path d="m11.890625 3.167969c-.324219.007812-.625.171875-.804687.441406-.984376 1.476563-2.363282 3.476563-3.503907 5.445313-1.144531 1.972656-2.121093 3.820312-2.121093 5.519531h-.003907c0 3.574219 2.878907 6.453125 6.449219 6.453125 3.574219 0 6.449219-2.878906 6.449219-6.453125h-.003907c0-1.699219-.972656-3.546875-2.117187-5.519531-1.144531-1.96875-2.519531-3.96875-3.503906-5.445313-.1875-.28125-.503907-.445313-.839844-.441406zm.015625 2.769531c.859375 1.28125 1.796875 2.691406 2.621094 4.109375 1.089844 1.875 1.851562 3.75 1.851562 4.527344h-.007812c0 2.476562-1.988282 4.464843-4.464844 4.464843-2.472656 0-4.464844-1.988281-4.464844-4.464843h-.003906c0-.777344.761719-2.652344 1.851562-4.527344.824219-1.417969 1.761719-2.828125 2.617188-4.109375zm0 0" fill="#424242"/></svg>

<?xml version="1.0" encoding="UTF-8"?>
<svg xmlns="http://www.w3.org/2000/svg" xmlns:xlink="http://www.w3.org/1999/xlink" width="24px" height="24px" viewBox="0 0 24 24" version="1.1">
<g id="surface1">
<path style=" stroke:none;fill-rule:nonzero;fill:rgb(25.882354%,25.882354%,25.882354%);fill-opacity:1;" d="M 11.890625 3.167969 C 11.566406 3.175781 11.265625 3.339844 11.085938 3.609375 C 10.101562 5.085938 8.722656 7.085938 7.582031 9.054688 C 6.4375 11.027344 5.460938 12.875 5.460938 14.574219 L 5.457031 14.574219 C 5.457031 18.148438 8.335938 21.027344 11.90625 21.027344 C 15.480469 21.027344 18.355469 18.148438 18.355469 14.574219 L 18.351562 14.574219 C 18.351562 12.875 17.378906 11.027344 16.234375 9.054688 C 15.089844 7.085938 13.714844 5.085938 12.730469 3.609375 C 12.542969 3.328125 12.226562 3.164062 11.890625 3.167969 Z M 11.90625 5.9375 C 12.765625 7.21875 13.703125 8.628906 14.527344 10.046875 C 15.617188 11.921875 16.378906 13.796875 16.378906 14.574219 L 16.371094 14.574219 C 16.371094 17.050781 14.382812 19.039062 11.90625 19.039062 C 9.433594 19.039062 7.441406 17.050781 7.441406 14.574219 L 7.4375 14.574219 C 7.4375 13.796875 8.199219 11.921875 9.289062 10.046875 C 10.113281 8.628906 11.050781 7.21875 11.90625 5.9375 Z M 11.90625 5.9375 "/>
</g>
</svg>
